icon-svg/sultan-group-hung.svg

<?xml version="1.0" encoding="UTF-8"?>
<svg width="24px" fill="#44739e" height="24px" viewBox="0 0 24 24" version="1.1" xmlns="http://www.w3.org/2000/svg" xmlns:xlink="http://www.w3.org/1999/xlink">
            <path d="m 15.96,7.8 a 2.08,2.08 0 0 1 0.1,0.63 23.213,23.213 0 0 0 1.02,6.42 18.866,18.866 0 0 1 2.89,0.36 A 22.162,22.162 0 0 1 18.88,8.77 0.749,0.749 0 0 0 18.7,8.27 L 18.39,7.91 A 19.447,19.447 0 0 0 16.07,7.78 0.215,0.215 0 0 1 15.96,7.8 Z M 8.43,7.115 8.71,6.785 8.72,6.775 a 0.808,0.808 0 0 1 0,-0.31 L 9.07,4.255 8.72,3.845 A 0.646,0.646 0 0 0 8.19,3.595 H 7.68 a 0.714,0.714 0 0 0 -0.55,0.25 l -0.35,0.41 a 0.462,0.462 0 0 1 -0.07,0.07 l -0.33,0.3 a 0.63,0.63 0 0 0 -0.21,0.4 l -0.36,2.18 c 0.73,-0.07 1.54,-0.1 2.11,-0.1 0.16,0 0.33,0.01 0.51,0.01 z M 14.3,6.625 13.92,4.2 A 0.741,0.741 0 0 0 13.7,3.75 L 13.34,3.42 A 0.462,0.462 0 0 1 13.27,3.35 L 12.89,2.89 A 0.764,0.764 0 0 0 12.29,2.61 H 11.73 A 0.711,0.711 0 0 0 11.15,2.89 L 10.77,3.35 A 0.462,0.462 0 0 1 10.7,3.42 L 10.34,3.75 A 0.728,0.728 0 0 0 10.11,4.2 L 9.72,6.63 c 0.8,-0.08 1.67,-0.11 2.29,-0.11 0.62,0 1.5,0.025 2.29,0.105 z m 0.98,0.15 0.01,0.01 0.28,0.33 c 0.18,0 0.35,-0.01 0.51,-0.01 0.57,0 1.38,0.03 2.11,0.1 l -0.36,-2.18 a 0.63,0.63 0 0 0 -0.21,-0.4 l -0.33,-0.3 a 0.462,0.462 0 0 1 -0.07,-0.07 l -0.35,-0.41 a 0.714,0.714 0 0 0 -0.55,-0.25 h -0.51 a 0.646,0.646 0 0 0 -0.53,0.25 l -0.35,0.41 0.35,2.21 a 0.808,0.808 0 0 1 0,0.31 z m -7.49,8.78 a 20.144,20.144 0 0 1 4.22,-0.43 19.755,19.755 0 0 1 4.23,0.44 24.663,24.663 0 0 1 -1.18,-7.18 0.837,0.837 0 0 0 -0.19,-0.55 l -0.34,-0.4 a 18.657,18.657 0 0 0 -2.52,-0.15 20.452,20.452 0 0 0 -2.52,0.15 l -0.34,0.4 a 0.785,0.785 0 0 0 -0.18,0.54 25.031,25.031 0 0 1 -1.18,7.18 z m 12.48,0.46 a 14,14 0 0 0 -3.05,-0.45 c 0,0.04 0.01,0.09 0.01,0.14 a 0.962,0.962 0 0 1 0.23,0.3 l 0.03,0.07 c 0.36,0.72 1.34,2.71 0.53,4.25 a 4.834,4.834 0 0 0 2.48,-0.87 c 1.07,-0.98 0.1,-2.8 -0.23,-3.44 z M 12,15.915 a 16.73,16.73 0 0 0 -4.55,0.54 c -0.36,0.72 -1.41,2.74 -0.25,3.84 1.25,1.17 4.58,1.1 4.79,1.1 0.21,0 3.56,0.07 4.81,-1.1 1.16,-1.09 0.11,-3.12 -0.25,-3.84 A 16.673,16.673 0 0 0 12,15.915 Z M 6.92,14.845 A 23.213,23.213 0 0 0 7.94,8.425 2.08,2.08 0 0 1 8.04,7.795 0.215,0.215 0 0 1 7.93,7.775 19.447,19.447 0 0 0 5.61,7.905 L 5.3,8.265 a 0.749,0.749 0 0 0 -0.18,0.5 22.162,22.162 0 0 1 -1.09,6.44 18.866,18.866 0 0 1 2.89,-0.36 z m -0.14,0.72 a 14,14 0 0 0 -3.05,0.45 c -0.33,0.64 -1.3,2.46 -0.23,3.44 a 4.834,4.834 0 0 0 2.48,0.87 c -0.81,-1.54 0.17,-3.53 0.53,-4.25 l 0.03,-0.07 a 0.962,0.962 0 0 1 0.23,-0.3 c 0,-0.05 0.01,-0.1 0.01,-0.14 z"/>

</svg>

<svg xmlns="http://www.w3.org/2000/svg" fill="#44739e" viewBox="0 0 24 24"><path d="M15.96 7.8a2.08 2.08 0 0 1 .1.63 23.2 23.2 0 0 0 1.02 6.42 18.9 18.9 0 0 1 2.89.36 22.16 22.16 0 0 1-1.09-6.44.75.75 0 0 0-.18-.5l-.31-.36a19.5 19.5 0 0 0-2.32-.13.215.215 0 0 1-.11.02m-7.53-.685.28-.33.01-.01a.81.81 0 0 1 0-.31l.35-2.21-.35-.41a.646.646 0 0 0-.53-.25h-.51a.714.714 0 0 0-.55.25l-.35.41a.46.46 0 0 1-.07.07l-.33.3a.63.63 0 0 0-.21.4l-.36 2.18c.73-.07 1.54-.1 2.11-.1.16 0 .33.01.51.01m5.87-.49L13.92 4.2a.74.74 0 0 0-.22-.45l-.36-.33a.46.46 0 0 1-.07-.07l-.38-.46a.764.764 0 0 0-.6-.28h-.56a.711.711 0 0 0-.58.28l-.38.46a.46.46 0 0 1-.07.07l-.36.33a.728.728 0 0 0-.23.45l-.39 2.43c.8-.08 1.67-.11 2.29-.11s1.5.025 2.29.105m.98.15.01.01.28.33c.18 0 .35-.01.51-.01.57 0 1.38.03 2.11.1l-.36-2.18a.63.63 0 0 0-.21-.4l-.33-.3a.46.46 0 0 1-.07-.07l-.35-.41a.714.714 0 0 0-.55-.25h-.51a.646.646 0 0 0-.53.25l-.35.41.35 2.21a.81.81 0 0 1 0 .31m-7.49 8.78a20.14 20.14 0 0 1 4.22-.43 19.76 19.76 0 0 1 4.23.44 24.66 24.66 0 0 1-1.18-7.18.837.837 0 0 0-.19-.55l-.34-.4a18.7 18.7 0 0 0-2.52-.15 20.5 20.5 0 0 0-2.52.15l-.34.4a.785.785 0 0 0-.18.54 25.03 25.03 0 0 1-1.18 7.18m12.48.46a14 14 0 0 0-3.05-.45c0 .04.01.09.01.14a.96.96 0 0 1 .23.3l.03.07c.36.72 1.34 2.71.53 4.25a4.834 4.834 0 0 0 2.48-.87c1.07-.98.1-2.8-.23-3.44m-8.27-.1a16.73 16.73 0 0 0-4.55.54c-.36.72-1.41 2.74-.25 3.84 1.25 1.17 4.58 1.1 4.79 1.1s3.56.07 4.81-1.1c1.16-1.09.11-3.12-.25-3.84a16.67 16.67 0 0 0-4.55-.54m-5.08-1.07a23.2 23.2 0 0 0 1.02-6.42 2.08 2.08 0 0 1 .1-.63.215.215 0 0 1-.11-.02 19.5 19.5 0 0 0-2.32.13l-.31.36a.75.75 0 0 0-.18.5 22.16 22.16 0 0 1-1.09 6.44 18.9 18.9 0 0 1 2.89-.36m-.14.72a14 14 0 0 0-3.05.45c-.33.64-1.3 2.46-.23 3.44a4.834 4.834 0 0 0 2.48.87c-.81-1.54.17-3.53.53-4.25l.03-.07a.96.96 0 0 1 .23-.3c0-.05.01-.1.01-.14"/></svg>
